icons/arrow-tv.svg

<svg width="24" height="25" viewBox="0 0 24 25" fill="none" xmlns="http://www.w3.org/2000/svg">
<path fill-rule="evenodd" clip-rule="evenodd" d="M2.25 8.19995C2.25 5.58574 4.38579 3.44995 7 3.44995H17C19.6142 3.44995 21.75 5.58574 21.75 8.19995C21.75 8.61416 21.4142 8.94995 21 8.94995C20.5858 8.94995 20.25 8.61416 20.25 8.19995C20.25 6.41416 18.7858 4.94995 17 4.94995H7C5.21421 4.94995 3.75 6.41416 3.75 8.19995V14.2C3.75 15.9857 5.21421 17.45 7 17.45H12.7C13.1142 17.45 13.45 17.7857 13.45 18.2C13.45 18.6142 13.1142 18.95 12.7 18.95H7C4.38579 18.95 2.25 16.8142 2.25 14.2V8.19995Z" fill="black"/>
<path fill-rule="evenodd" clip-rule="evenodd" d="M9.96967 15.1696C10.2626 14.8767 10.7374 14.8767 11.0303 15.1696L13.1303 17.2696C13.4077 17.5469 13.5 17.9097 13.5 18.2125C13.5 18.5222 13.4066 18.8421 13.224 19.116L13.1828 19.1778L11.0303 21.3303C10.7374 21.6232 10.2626 21.6232 9.96967 21.3303C9.67678 21.0374 9.67678 20.5625 9.96967 20.2696L11.9893 18.25L9.96967 16.2303C9.67678 15.9374 9.67678 15.4625 9.96967 15.1696Z" fill="black"/>
</svg>

<svg xmlns="http://www.w3.org/2000/svg" fill="none" viewBox="0 0 24 25">
  <path fill="#000" fill-rule="evenodd" d="M2.25 8.2A4.762 4.762 0 0 1 7 3.45h10a4.762 4.762 0 0 1 4.75 4.75.75.75 0 0 1-1.5 0A3.262 3.262 0 0 0 17 4.95H7A3.262 3.262 0 0 0 3.75 8.2v6A3.262 3.262 0 0 0 7 17.45h5.7a.75.75 0 1 1 0 1.5H7a4.762 4.762 0 0 1-4.75-4.75v-6Z" clip-rule="evenodd"/>
  <path fill="#000" fill-rule="evenodd" d="M9.97 15.17a.75.75 0 0 1 1.06 0l2.1 2.1c.278.277.37.64.37.942 0 .31-.093.63-.276.904l-.041.062-2.153 2.152a.75.75 0 1 1-1.06-1.06l2.02-2.02-2.02-2.02a.75.75 0 0 1 0-1.06Z" clip-rule="evenodd"/>
</svg>
